X:26
%%etbk:tnset id:9,pos:3,rep:3x,ant:
%%etbk:wsite http://www.thesession.org/tunes/display/2057
%%etbk:pldat 2016-09-09T18:08,2016-07-25T18:25,2015-12-16T16:30,2015-12-06T14:22,2015-11-29T14:00,2015-11-24T18:22,2015-03-24T15:43,2015-01-28T17:18,2015-01-27T16:15,2014-09-25T18:20,2014-05-21T19:00,2014-04-09T16:29,2014-03-27T18:27,2014-03-13T18:39,2014-03-01T17:09,2014-02-15T15:53,2014-02-13T18:08,2014-02-08T15:00,2013-12-11T17:10,2013-11-20T15:10
T: A Fair Wind
Z: Piano Box Version by Martin Fleischmann
H: Created 2013-02-19 /  Last Modified 2013-02-19
M: 4/4
L: 1/8
R: reel
K: Gmaj
|: !1!G2G!2!F !1!G!2!G!1!GA | !3!BAGA BAAB | !1!G2G!2!F !1!GABG | !2!AB!1!G!2!E E!1!DD2:|
|: !3!B!5!ddB !1!GGGA | !3!BddB !4!c!2!AAc | !3!BddB !1!GABG | !2!AB!1!G!2!E E!1!DD2:|
|: !2!G!1!E!2!E!1!E !5!c3!3!A | !4!B2!5!d!4!B !3!A!5!c!4!B!3!A | !2!G!1!E !3!(3E!2!E!1!E !4!c!2!A!3!B!1!G | !2!AB!1!G!2!E E!1!DD2:|


